media/img/color-palette.svg

<svg fill="none" height="16" viewBox="0 0 16 16" width="16" xmlns="http://www.w3.org/2000/svg"><path d="m12.6695 4.00031c-.6316-.62721-1.3822-1.12194-2.2076-1.45515-.8255-.33321-1.70918-.49818-2.59926-.48525-1.67086-.00418-3.27495.65556-4.45938 1.83409s-1.85219 2.7793-1.85637 4.45016c-.00417 1.67084.65557 3.27494 1.8341 4.45934 1.17852 1.1845 2.77929 1.8522 4.45015 1.8564.36005.0061.71193-.1075 1.00041-.323.28849-.2155.49724-.5207.5935-.8677.06135-.2506.06072-.5123-.00186-.7626-.06257-.2503-.18519-.4816-.35725-.6738-.03978-.0453-.06574-.101-.07479-.1606s-.00082-.1205.02372-.1756c.02454-.055.06436-.1019.11473-.135s.10918-.051.16944-.0517h1.03946c.9784.0046 1.9223-.3611 2.6421-1.0237.7199-.66261 1.1624-1.573 1.2387-2.54839.0235-.72726-.1019-1.45165-.3684-2.12873s-.6685-1.29259-1.1814-1.80877zm-8.00096 6.08579c-.15468.1051-.33708.162-.5241.1634s-.37025-.0527-.52649-.1555c-.15624-.10281-.27846-.24966-.3512-.42196-.07273-.1723-.0927-.36231-.05738-.54597.03531-.18366.12434-.35271.25579-.48575.13145-.13303.29942-.22407.48265-.26158.18322-.03752.37346-.01982.54662.05085.17316.07066.32146.19112.42611.34612.07014.10238.11927.21764.14457.33913s.02626.24679.00283.36865c-.02344.12186-.0708.23786-.13936.3413-.06855.10344-.15694.19221-.26004.26131zm.9198-3.45869c-.08963.16602-.22691.3014-.39416.38872-.16725.08733-.3568.12259-.54426.10124-.18746-.02134-.36424-.0983-.50758-.22098s-.24668-.28546-.2967-.46738c-.05003-.18191-.04446-.37464.01599-.55337.06046-.17872.17302-.33525.32321-.44945.15019-.11419.33112-.18082.5195-.19129.18838-.01048.37558.03567.5375.13251.20894.12495.36159.32572.42614.56046.06456.23473.03603.48532-.07964.69954zm1.701-1.4175c-.1869 0-.3696-.05542-.52501-.15926-.1554-.10384-.27653-.25143-.34805-.4241-.07153-.17268-.09024-.36269-.05378-.546.03647-.18331.12647-.3517.25863-.48386s.30054-.22216.48385-.25862c.18332-.03647.37332-.01775.546.05377.17268.07153.32027.19265.4241.34806.10384.1554.15926.33811.15926.52501 0 .25063-.09956.49099-.27678.66822-.17722.17722-.41759.27678-.66822.27678zm3.62246.504c-.1619.09684-.3491.14299-.5375.13251-.1883-.01047-.3693-.0771-.51946-.19129-.15019-.11419-.26275-.27073-.32321-.44945-.06045-.17873-.06602-.37145-.01599-.55337.05002-.18192.15336-.3447.2967-.46738s.32016-.19964.50756-.22098c.1875-.02134.377.01392.5443.10124.1672.08732.3045.2227.3941.38872.1157.21422.1442.46481.0797.69955-.0646.23473-.2172.4355-.4262.56045z" fill="#242028"/></svg>

<svg width="16" height="16" viewBox="0 0 16 16" fill="none" xmlns="http://www.w3.org/2000/svg">
<path d="M12.6695 4.00031C12.0379 3.3731 11.2873 2.87837 10.4619 2.54516C9.6364 2.21195 8.75272 2.04698 7.86264 2.05991C6.19178 2.05573 4.58769 2.71547 3.40326 3.894C2.21883 5.07253 1.55107 6.6733 1.54689 8.34416C1.54272 10.015 2.20246 11.6191 3.38099 12.8035C4.55951 13.988 6.16028 14.6557 7.83114 14.6599C8.19119 14.666 8.54307 14.5524 8.83155 14.3369C9.12004 14.1214 9.32879 13.8162 9.42505 13.4692C9.4864 13.2186 9.48577 12.9569 9.42319 12.7066C9.36062 12.4563 9.238 12.225 9.06594 12.0328C9.02616 11.9875 9.0002 11.9318 8.99115 11.8722C8.9821 11.8126 8.99033 11.7517 9.01487 11.6966C9.03941 11.6416 9.07923 11.5947 9.1296 11.5616C9.17997 11.5285 9.23878 11.5106 9.29904 11.5099H10.3385C11.3169 11.5145 12.2608 11.1488 12.9806 10.4862C13.7005 9.82359 14.143 8.9132 14.2193 7.93781C14.2428 7.21055 14.1174 6.48616 13.8509 5.80908C13.5844 5.132 13.1824 4.51649 12.6695 4.00031ZM4.66854 10.0861C4.51386 10.1912 4.33146 10.2481 4.14444 10.2495C3.95742 10.2509 3.77419 10.1968 3.61795 10.094C3.46171 9.99119 3.33949 9.84434 3.26675 9.67204C3.19402 9.49974 3.17405 9.30973 3.20937 9.12607C3.24468 8.94241 3.33371 8.77336 3.46516 8.64032C3.59661 8.50729 3.76458 8.41625 3.94781 8.37874C4.13103 8.34122 4.32127 8.35892 4.49443 8.42959C4.66759 8.50025 4.81589 8.62071 4.92054 8.77571C4.99068 8.87809 5.03981 8.99335 5.06511 9.11484C5.09041 9.23633 5.09137 9.36163 5.06794 9.48349C5.0445 9.60535 4.99714 9.72135 4.92858 9.82479C4.86003 9.92823 4.77164 10.017 4.66854 10.0861ZM5.58834 6.62741C5.49871 6.79343 5.36143 6.92881 5.19418 7.01613C5.02693 7.10346 4.83738 7.13872 4.64992 7.11737C4.46246 7.09603 4.28568 7.01907 4.14234 6.89639C3.999 6.77371 3.89566 6.61093 3.84564 6.42901C3.79561 6.2471 3.80118 6.05437 3.86163 5.87564C3.92209 5.69692 4.03465 5.54039 4.18484 5.42619C4.33503 5.312 4.51596 5.24537 4.70434 5.2349C4.89272 5.22442 5.07992 5.27057 5.24184 5.36741C5.45078 5.49236 5.60343 5.69313 5.66798 5.92787C5.73254 6.1626 5.70401 6.41319 5.58834 6.62741ZM7.28934 5.20991C7.10244 5.20991 6.91974 5.15449 6.76433 5.05065C6.60893 4.94681 6.4878 4.79922 6.41628 4.62655C6.34475 4.45387 6.32604 4.26386 6.3625 4.08055C6.39897 3.89724 6.48897 3.72885 6.62113 3.59669C6.75329 3.46453 6.92167 3.37453 7.10498 3.33807C7.2883 3.3016 7.4783 3.32032 7.65098 3.39184C7.82366 3.46337 7.97125 3.58449 8.07508 3.7399C8.17892 3.8953 8.23434 4.07801 8.23434 4.26491C8.23434 4.51554 8.13478 4.7559 7.95756 4.93313C7.78034 5.11035 7.53997 5.20991 7.28934 5.20991ZM10.9118 5.71391C10.7499 5.81075 10.5627 5.8569 10.3743 5.84642C10.186 5.83595 10.005 5.76932 9.85484 5.65513C9.70465 5.54094 9.59209 5.3844 9.53163 5.20568C9.47118 5.02695 9.46561 4.83423 9.51564 4.65231C9.56566 4.47039 9.669 4.30761 9.81234 4.18493C9.95568 4.06225 10.1325 3.98529 10.3199 3.96395C10.5074 3.94261 10.6969 3.97787 10.8642 4.06519C11.0314 4.15251 11.1687 4.28789 11.2583 4.45391C11.374 4.66813 11.4025 4.91872 11.338 5.15346C11.2734 5.38819 11.1208 5.58896 10.9118 5.71391Z" fill="#242028"/>
</svg>
